X: 29502
T: Nina's
R: jig
M: 6/8
K: Amajor
|:FAB c2B|BAc BAF|FAB c2B|Bce f3|
FAB c2B|BAc BAB|BAc BAF|AFE F2:|
|:f3 ecB|BAc BAF|f2e ecB|Bce f3|
fea fea|fec BAB|BAc BAc|BAE F2:|

